X: 24056
T: Lonely Tree, The
R: reel
M: 4/4
K: Eminor
F2|GEEE DEEE|GEGA B2 AG|FDDD A,DDD|FDFG A2 GF|
GEEE DEEE|GEGA BcBG|E2 F2 GFED|B,EED E2:|
|:ef|g2 ef gfed|Beed B2 AG|F2 AF dAFA|BAGA B2 ef|
gagf efed|Beed B2 AG|F2 AF dAFA|BAGF E2:|

